dist/assets/images/brands/brandsIco/control (Traced).svg

<svg width="26" height="28" viewBox="0 0 26 28" fill="none" xmlns="http://www.w3.org/2000/svg">
<path opacity="0.6" fill-rule="evenodd" clip-rule="evenodd" d="M2.36663 0.0319079C1.3771 0.202763 0.53123 0.913704 0.159786 1.88675L0.0361903 2.21058L0.0216045 11.7364C0.00773152 20.7742 0.0119537 21.2682 0.103855 21.3787C0.157099 21.4427 0.279269 21.5102 0.375283 21.5287C0.516096 21.5559 0.577071 21.5352 0.690577 21.4219L0.831281 21.2816V11.9627C0.831281 1.60336 0.807044 2.27245 1.20333 1.69139C1.32056 1.51949 1.53688 1.3035 1.70917 1.18637C2.27834 0.799472 2.07996 0.81107 7.85664 0.827811L13.0318 0.842856L13.3965 1.01524C14.0242 1.31198 14.4101 1.80934 14.5349 2.4827C14.619 2.93694 14.619 25.0637 14.5349 25.5179C14.4118 26.1823 14.016 26.6926 13.3969 26.9852L13.0318 27.1578L7.85664 27.1728C2.07996 27.1896 2.27834 27.2012 1.70917 26.8143C1.53688 26.6971 1.32056 26.4811 1.20333 26.3092C0.875477 25.8285 0.831281 25.5538 0.831281 23.998V22.6393L0.696664 22.5051C0.523608 22.3323 0.314856 22.334 0.139004 22.5094L0 22.6481L0.0215497 24.2191C0.0413995 25.6652 0.0525308 25.8155 0.161979 26.1102C0.314636 26.5213 0.466197 26.7652 0.774692 27.0961C1.0964 27.4412 1.3998 27.6466 1.85887 27.8302L2.22954 27.9784L7.53312 27.9937C13.3773 28.0105 13.2032 28.0193 13.8936 27.6715C14.3234 27.4551 14.8417 26.9375 15.0783 26.4887C15.4301 25.821 15.4151 26.2385 15.4161 17.0777L15.4171 8.74827H15.8746C16.2476 8.74827 16.3766 8.7248 16.5737 8.62102C16.8742 8.46275 17.1608 8.09697 17.2062 7.8139L17.2406 7.59939H17.915C18.5784 7.59939 18.5913 7.6018 18.7031 7.74355L18.8168 7.8877L18.8177 16.3465C18.8188 25.7705 18.7958 25.1936 19.2024 26.0125C20.2494 28.1212 23.0785 28.6567 24.8098 27.0739C25.2184 26.7004 25.43 26.4201 25.6741 25.9294C26.0195 25.2348 25.9983 26.1049 25.9992 12.5682L26 0.221638L25.8555 0.108281C25.6754 -0.0330862 25.5021 -0.0360404 25.3344 0.0994732L25.2049 0.204022L25.1775 12.6141C25.1473 26.2905 25.1809 25.0542 24.8194 25.766C24.3774 26.6363 23.1919 27.2638 22.1813 27.1624C20.9589 27.0397 19.9099 26.0918 19.698 24.9183C19.658 24.6971 19.6391 21.9089 19.6387 16.1649L19.6382 7.73616L19.5076 7.45622C19.2541 6.91307 18.8258 6.72405 17.8485 6.72405H17.2266V6.3087V5.89341L18.0354 5.91512C18.7143 5.93334 18.8951 5.95687 19.1614 6.06153C19.6048 6.23588 20.0718 6.67913 20.2753 7.11894L20.4344 7.46262L20.4618 9.00677C20.4884 10.5054 20.4928 10.5544 20.6095 10.6708C20.7673 10.8281 21.0338 10.8279 21.1914 10.6705C21.3095 10.5525 21.3117 10.5223 21.3102 9.06115C21.3088 7.78441 21.2944 7.5252 21.2093 7.24378C20.8911 6.19168 20.0833 5.40163 19.0858 5.16704C18.8631 5.11463 18.4586 5.0841 17.9806 5.08361C17.2358 5.08279 17.2266 5.08125 17.2254 4.95969C17.2218 4.59489 16.7617 4.04726 16.3669 3.93784C16.2516 3.90595 15.9907 3.87968 15.7872 3.87952L15.4171 3.87919L15.4161 3.23636C15.4156 2.88278 15.3806 2.4305 15.3382 2.23125C15.1384 1.29065 14.4759 0.53118 13.5253 0.153088L13.1963 0.0222244L7.85001 0.0152217C4.90955 0.0113921 2.44202 0.0188872 2.36663 0.0319079ZM23.6775 0.107898L23.5334 0.220927L23.5193 12.4584L23.5051 24.6959L23.3806 24.9283C23.3122 25.0562 23.1536 25.2285 23.0282 25.3113C22.8329 25.4402 22.7441 25.4618 22.4084 25.4618C21.9619 25.4618 21.7332 25.3471 21.4987 25.0057L21.3665 24.8133L21.3391 18.3811C21.3175 13.2983 21.297 11.923 21.2416 11.8263C21.1006 11.5801 20.6658 11.6054 20.5317 11.8676C20.4765 11.9754 20.465 13.3229 20.4757 18.4044L20.4892 24.8053L20.621 25.1319C20.7796 25.5247 21.2204 25.99 21.5876 26.1521C22.1158 26.3852 22.7987 26.3796 23.2727 26.1383C23.6326 25.9552 23.9967 25.5747 24.1696 25.2011L24.3276 24.86L24.3418 12.5622L24.3559 0.264365L24.2209 0.129618C24.056 -0.0347821 23.8688 -0.0422772 23.6775 0.107898ZM3.97134 2.15816C3.06329 2.40211 2.41258 3.05883 2.17427 3.97181C2.05078 4.44483 2.05078 23.5558 2.17427 24.0288C2.41565 24.9535 3.06801 25.6044 3.99481 25.8452C4.25664 25.9133 4.86667 25.9268 7.66215 25.9268C9.67696 25.9268 11.1333 25.9049 11.3108 25.8718C12.2816 25.691 13.093 24.8673 13.2739 23.8789C13.3574 23.4231 13.3574 4.5775 13.2739 4.12177C13.093 3.13329 12.2816 2.3096 11.3108 2.12879C11.1317 2.09547 9.68508 2.07523 7.63692 2.07741C4.9107 2.08031 4.20296 2.09591 3.97134 2.15816ZM11.5356 3.0753C11.9197 3.2635 12.2522 3.62835 12.3845 4.00661C12.4784 4.27518 12.4835 4.78227 12.4835 14.0003C12.4835 23.2184 12.4784 23.7255 12.3845 23.994C12.2522 24.3723 11.9197 24.7371 11.5356 24.9253L11.2223 25.0788H7.71292H4.20356L3.91766 24.9498C3.56157 24.7892 3.18563 24.3952 3.0475 24.0378C2.94529 23.7734 2.94238 23.4946 2.94238 14.0003C2.94238 4.52678 2.94551 4.2267 3.0469 3.96448C3.23437 3.47944 3.69986 3.07689 4.21639 2.95297C4.33045 2.92562 5.94536 2.90756 7.82259 2.9126L11.2223 2.92179L11.5356 3.0753ZM5.65276 4.22594C5.08655 4.38191 4.60999 4.79245 4.34805 5.34976L4.20356 5.65723L4.18634 8.22854C4.16781 10.9998 4.1864 11.2553 4.43995 11.7226C4.62512 12.064 5.05283 12.437 5.43732 12.5926C5.73002 12.711 5.79703 12.7147 7.71292 12.7143C9.44364 12.714 9.71573 12.7025 9.92059 12.6208C10.4858 12.3954 10.9322 11.9435 11.125 11.4016C11.2131 11.1539 11.2223 10.8755 11.2223 8.44738C11.2223 6.03253 11.2127 5.73951 11.1261 5.4931C10.9368 4.9546 10.4077 4.42453 9.88857 4.25329C9.59235 4.15558 5.99251 4.13233 5.65276 4.22594ZM16.301 4.85848C16.3956 4.97506 16.4041 5.0957 16.4041 6.32993C16.4041 7.63506 16.4006 7.67811 16.2849 7.80105C16.1828 7.90937 16.1117 7.92764 15.7914 7.92764H15.4171V6.30755V4.68746L15.8075 4.70951C16.1346 4.72794 16.2147 4.75213 16.301 4.85848ZM9.74512 5.09252C9.99971 5.23176 10.2587 5.52139 10.3219 5.73738C10.3583 5.86195 10.3724 6.86826 10.3617 8.56544L10.3449 11.2001L10.1773 11.4067C9.80522 11.8653 9.95267 11.8393 7.71857 11.8393H5.73085L5.5341 11.7048C5.26037 11.5176 5.06626 11.1961 5.02557 10.8622C5.00671 10.7076 4.99914 9.51009 5.00869 8.20119L5.02607 5.82135L5.17637 5.56625C5.33341 5.29971 5.60308 5.09635 5.89562 5.02386C5.99037 5.00034 6.85752 4.98557 7.82259 4.99093C9.34955 4.99946 9.59904 5.01265 9.74512 5.09252ZM6.87934 7.17802C6.31302 7.74305 6.25983 7.81346 6.25983 7.99865C6.25983 8.2496 6.41556 8.42002 6.64487 8.42002C6.76287 8.42002 6.88137 8.35497 7.05612 8.19424L7.30167 7.9684V9.03265C7.30167 10.0744 7.30436 10.0994 7.42856 10.2159C7.60814 10.3842 7.86679 10.373 8.01051 10.1907C8.11645 10.0564 8.12418 9.97583 8.12418 9.00748V7.9684L8.36972 8.19424C8.65678 8.45821 8.86312 8.48846 9.04681 8.29342C9.28918 8.03596 9.22486 7.90242 8.5209 7.20187C7.66319 6.34836 7.71018 6.34907 6.87934 7.17802ZM5.65797 15.3444C5.10305 15.4968 4.64963 15.8558 4.40305 16.338C4.18925 16.7561 4.16841 17.0864 4.18634 19.7721L4.20356 22.3434L4.34942 22.6539C4.55367 23.0885 4.89063 23.4319 5.31976 23.6427L5.68166 23.8205H7.65688C9.09156 23.8205 9.69451 23.8016 9.86005 23.7514C10.3937 23.5896 10.9314 23.0612 11.1261 22.5075C11.2127 22.2611 11.2223 21.9681 11.2223 19.5533C11.2223 17.1251 11.2131 16.8468 11.125 16.599C10.9317 16.0559 10.481 15.6004 9.92059 15.3819C9.58259 15.2501 6.1126 15.2196 5.65797 15.3444ZM9.85802 16.2743C9.94137 16.3364 10.085 16.4802 10.1773 16.5939L10.3449 16.8005L10.3617 19.4352C10.3724 21.1324 10.3583 22.1387 10.3219 22.2633C10.2587 22.4792 9.99971 22.7689 9.74512 22.9081C9.59729 22.989 9.3547 22.9999 7.71292 22.9999H5.84857L5.58959 22.848C5.42164 22.7495 5.27704 22.6052 5.17834 22.4377L5.02607 22.1793V19.5533C5.02607 16.6705 5.0128 16.793 5.36368 16.4398C5.66406 16.1375 5.68429 16.135 7.77752 16.1487C9.63079 16.1608 9.71244 16.1657 9.85802 16.2743ZM7.42088 17.7924C7.30699 17.9134 7.30167 17.9661 7.30167 18.9756V20.0322L7.05612 19.8064C6.88137 19.6457 6.76287 19.5806 6.64487 19.5806C6.41556 19.5806 6.25983 19.751 6.25983 20.002C6.25983 20.1872 6.31302 20.2576 6.87934 20.8226C7.71018 21.6516 7.66319 21.6523 8.5209 20.7988C9.06661 20.2557 9.16602 20.1307 9.16602 19.9876C9.16602 19.7788 8.97021 19.5806 8.7637 19.5806C8.66594 19.5806 8.53137 19.6577 8.36972 19.8064L8.12418 20.0322V18.9931C8.12418 18.0248 8.11645 17.9443 8.01051 17.81C7.86196 17.6215 7.58944 17.6134 7.42088 17.7924Z" fill="white"/>
</svg>

<svg width="26" height="28" fill="none" xmlns="http://www.w3.org/2000/svg"><path opacity=".6" fill-rule="evenodd" clip-rule="evenodd" d="M2.367.032C1.377.202.53.914.16 1.887l-.124.324-.014 9.525c-.014 9.038-.01 9.532.082 9.643a.54.54 0 00.271.15c.141.027.202.006.316-.107l.14-.14v-9.32c0-10.359-.024-9.69.372-10.27a2.23 2.23 0 01.506-.506C2.28.8 2.08.811 7.857.828l5.175.015.364.172c.628.297 1.014.794 1.139 1.468.084.454.084 22.58 0 23.035a1.97 1.97 0 01-1.138 1.467l-.365.173-5.175.015c-5.777.017-5.579.028-6.148-.359a2.21 2.21 0 01-.506-.505c-.328-.48-.372-.755-.372-2.311v-1.359l-.134-.134c-.173-.173-.382-.171-.558.004L0 22.65l.022 1.57c.02 1.446.03 1.596.14 1.891.153.411.304.655.613.986.321.345.625.55 1.084.734l.37.148 5.304.016c5.844.017 5.67.025 6.36-.322.43-.217.949-.735 1.185-1.183.352-.668.337-.25.338-9.411l.001-8.33h.458c.373 0 .502-.023.699-.127.3-.158.587-.524.632-.807l.035-.215h.674c.663 0 .676.003.788.145l.114.144v8.459c.002 9.423-.021 8.847.385 9.665 1.047 2.11 3.876 2.645 5.608 1.062.408-.374.62-.654.864-1.145.346-.694.324.176.325-13.36L26 .221l-.145-.114c-.18-.141-.353-.144-.52-.009l-.13.105-.027 12.41c-.03 13.677.003 12.44-.359 13.152-.442.87-1.627 1.498-2.638 1.396-1.222-.122-2.271-1.07-2.483-2.244-.04-.22-.059-3.01-.06-8.753V7.736l-.13-.28c-.254-.543-.682-.732-1.66-.732h-.621v-.831l.808.022c.68.018.86.042 1.126.147.444.174.91.617 1.114 1.057l.16.344.027 1.544c.026 1.498.03 1.547.148 1.664a.418.418 0 00.581 0c.119-.118.12-.149.12-1.61-.002-1.277-.017-1.536-.102-1.817-.318-1.052-1.126-1.842-2.123-2.077-.223-.052-.627-.083-1.105-.083-.745-.001-.754-.003-.756-.124-.003-.365-.463-.913-.858-1.022a2.775 2.775 0 00-.58-.058h-.37v-.644a6.24 6.24 0 00-.079-1.005c-.2-.94-.862-1.7-1.813-2.078l-.329-.13L7.85.014C4.91.011 2.442.02 2.367.032zm21.31.076l-.144.113-.014 12.237-.014 12.238-.124.232a1.26 1.26 0 01-.353.383c-.195.13-.284.15-.62.15-.446 0-.675-.114-.91-.455l-.132-.193-.027-6.432c-.021-5.083-.042-6.458-.097-6.555-.141-.246-.576-.22-.71.042-.055.107-.067 1.455-.056 6.536l.013 6.401.132.327c.159.393.6.858.967 1.02.528.233 1.21.228 1.685-.014a2.15 2.15 0 00.897-.937l.158-.341.014-12.298.014-12.298L24.22.13c-.165-.165-.352-.172-.544-.022zM3.971 2.158c-.908.244-1.558.9-1.797 1.814-.123.473-.123 19.584 0 20.057.242.924.894 1.575 1.82 1.816.263.068.873.082 3.668.082 2.015 0 3.471-.022 3.649-.055.97-.181 1.782-1.005 1.963-1.993.083-.456.083-19.302 0-19.757-.181-.989-.992-1.812-1.963-1.993-.18-.034-1.626-.054-3.674-.052-2.726.003-3.434.019-3.666.081zm7.565.917c.384.188.716.553.848.932.094.268.1.775.1 9.993s-.006 9.726-.1 9.994c-.132.378-.464.743-.848.931l-.314.154H4.204l-.286-.13c-.356-.16-.732-.554-.87-.911-.103-.265-.106-.543-.106-10.038 0-9.473.004-9.773.105-10.036a1.723 1.723 0 011.17-1.011c.113-.027 1.728-.045 3.606-.04l3.4.009.313.153zm-5.883 1.15A2.06 2.06 0 004.348 5.35l-.144.307-.018 2.572c-.018 2.77 0 3.026.254 3.494.185.341.613.714.997.87.293.118.36.122 2.276.121 1.73 0 2.003-.011 2.208-.093a2.1 2.1 0 001.204-1.22c.088-.247.097-.525.097-2.954 0-2.414-.01-2.707-.096-2.954-.19-.538-.718-1.068-1.237-1.24-.297-.097-3.896-.12-4.236-.027zm10.648.633c.095.117.103.238.103 1.472 0 1.305-.003 1.348-.12 1.471-.101.108-.172.127-.493.127h-.374v-3.24l.39.022c.328.018.408.042.494.148zm-6.556.235c.255.139.514.428.577.644.036.125.05 1.131.04 2.828l-.017 2.635-.168.207c-.372.458-.224.432-2.458.432H5.73l-.197-.134a1.224 1.224 0 01-.508-.843c-.02-.154-.027-1.352-.017-2.66l.017-2.38.15-.256c.157-.266.427-.47.72-.542.094-.024.962-.038 1.927-.033 1.527.008 1.776.022 1.922.102zM6.88 7.178c-.566.565-.62.635-.62.82 0 .252.157.422.386.422.118 0 .236-.065.411-.226l.246-.226v1.065c0 1.041.002 1.066.127 1.183.18.168.438.157.582-.025.105-.135.113-.215.113-1.184V7.968l.246.226c.287.264.493.294.677.1.242-.258.178-.392-.526-1.092-.858-.854-.81-.853-1.642-.024zm-1.221 8.166a1.982 1.982 0 00-1.255.994c-.214.418-.235.748-.217 3.434l.018 2.571.145.31c.205.436.542.779.97.99l.363.177h1.975c1.435 0 2.038-.018 2.203-.069.534-.161 1.071-.69 1.266-1.244.087-.246.096-.539.096-2.954 0-2.428-.009-2.706-.097-2.954a2.089 2.089 0 00-1.204-1.217c-.338-.132-3.808-.162-4.263-.038zm4.2.93c.083.062.227.206.32.32l.167.206.017 2.635c.01 1.697-.004 2.704-.04 2.828-.063.216-.322.506-.577.645-.148.081-.39.092-2.032.092H5.849l-.26-.152a1.169 1.169 0 01-.41-.41l-.153-.259v-2.626c0-2.883-.013-2.76.338-3.113.3-.303.32-.305 2.414-.291 1.853.012 1.934.017 2.08.125zm-2.437 1.518c-.114.121-.12.174-.12 1.184v1.056l-.245-.226c-.175-.16-.293-.225-.411-.225-.23 0-.385.17-.385.421 0 .185.053.256.62.82.83.83.783.83 1.64-.023.547-.543.646-.668.646-.811a.427.427 0 00-.402-.407c-.098 0-.233.077-.394.225l-.246.226v-1.039c0-.968-.008-1.049-.113-1.183a.384.384 0 00-.59-.018z" fill="#fff"/></svg>
